X: 2
T: I'll Tell Me Ma
R: polka
M: 2/4
L: 1/8
K: Dmaj
Ad f2 | ge f2 | fe ed/e/ | fe ed/B/ |Ad fd/f/ | ga/g/ f2 | fe ac | d2- d :|aa/a/ af | gg/g/ ge | ff/f/ fd | e/f/e/c/ BA |a>a af | g>g ge | fd e/f/e/c/ | ed d :|


Tune 2434	Setting 21481

